X: 11273
T: Dwarves, The
R: jig
M: 6/8
K: Dminor
|:D2 d2 c2|BAG ~F2 E|D2 d2 cB|def ~f2 e|
D2 d2 c2 BAG ~F2 E|B,DF EDC|1 D2 ~A,3 A,:|2 ~D6||
|:DEF EDA|DBD ~d3|DEF EDC|D2 ~A,3 A,|
DEF EDA|DBD ~d3|DEF EDC|~D6:|

